T: Piper's Maggot, The
M: 9/8
L: 1/8
K: Cmaj
~  | e2 e ecA f2 a | ~ or ~  | e2 e ec/B/A e2 d | ~ or ~  | e3 e2 c e2 a | ~ or ~ | efe ecA fed | ~
